!!!COM: Robert Schumann
!!!CNT: Deutsch
!!!TXO: Deutsch
!!!OTL: Volksliedchen
!!!LYR: Ru2ckert
!!!OPR: Ausgewa2hlte Lieder
!!!OPS: Op. 51
!!!ONM: No. 2
!!!ENC: Ben Fuhrman
!!!YOR: Schumann Lieder - Max Friedlaender, ed.,
!!!YOR: New York: C. F. Peters, Vol. 1
!!!ODT: 1840/
!!NB: Vocal melody and text only encoded.
!!NB: First instance of melodic material only encoded.
**kern	**silbe
*clefG2	*
*k[b-]	*
*M2/4	*
!!created: 5/25/06 9:05
!!proofed and posted: 5/25/06 9:05
!!edit time: 20 minutes
=1	=1
{8a	{Wenn
8a	ich
8a	fru2h
16a	in
16a	den
=2	=2
8a	Gar-
8b-	-ten
8cc	geh'
8a	in
=3	=3
8g	mei-
(16a	-nem
16b-)	|
8g	gru2-
8g	-nen
=4	=4
2a}	Hut,}
=5	=5
4r	.
8r	.
{16f	{ist
16f	mein
=6	=6
4dd	er-
8.cc	-ster
16cc	Ge-
=7	=7
8cc	-dan-
8bn	-ke,
8r	.
8a	was
=8	=8
8g	nun
8bn	mein
8ee	Lieb-
8dd	-ster
=9	=9
4cc}	tut?}
4r	.
!! rest to measure 12
=12	=12
4r	.
8r	.
{8g	{Am
=13	=13
8.g	Him-
16g	-mel
8g	steht
8a	kein
=14	=14
4b-	Stern,
8r	.
8b-	den
=15	=15
8dd	ich
8cc	dem
8b-	Freund
8a	nicht
=16	=16
8g	go2nn-
8g	-te.
8r	.
8d	Mein
=17	=17
8.d	Herz
16d	ga2b'
8d	ich
8e	ihm
=18	=18
8f	gern,
8f	wenn
8a	ich's
8f	her-
=19	=19
4e	-aus
4d	tun
=20	=20
8c	ko2nn-
8c}	-te.}
4r	.
=21	=21
{8a	{Wenn
8a	ich
8a	fru2h
16a	in
16a	dem
=22	=22
8a	Gar-
8b-	-ten
8cc	geh'
8a	in
=23	=23
8g	mei-
(16a	-nem
16b-)	|
8g	gru2-
8g	-nen
=24	=24
4a}	Hut,}
8r	.
{16f	{ist
16f	mein
=25	=25
4ff	er-
8.ee-	-ster
16e-	Ge-
=26	=26
8dd	-dan-
8dd	-ke,
8r	.
8cc	was
=27	=27
(16cc	nun
16b-)	|
(16a	mein
16b-)	|
8g	Lieb-
8cc	-ster
=28	=28
4f	tut,
8f	ist
8f	mein
=29	=29
4ff	er-
8ee-	-ster
8ee-	Ge-
=30	=30
(8dd	-dan-
8cc)	|
8bn	-ke,
8b-	was
=31	=31
8a	nun
8dd}	mein}
4r	.
=32	=32
{4.cc	{Lieb-
8e	-ster
=33	=33
4f}	tut?}
4r	.
==	==
*-	*-
